assets/images/icons/info.svg

<path class="path1" d="M512 96c-111.118 0-215.584 43.272-294.156 121.844s-121.844 183.038-121.844 294.156c0 111.118 43.272 215.584 121.844 294.156s183.038 121.844 294.156 121.844c111.118 0 215.584-43.272 294.156-121.844s121.844-183.038 121.844-294.156c0-111.118-43.272-215.584-121.844-294.156s-183.038-121.844-294.156-121.844zM512 0v0c282.77 0 512 229.23 512 512s-229.23 512-512 512c-282.77 0-512-229.23-512-512s229.23-512 512-512zM448 704h128v128h-128zM448 192h128v384h-128z"></path>

<path class="path1" d="M512 96c-111.118 0-215.584 43.272-294.156 121.844S96 400.882 96 512s43.272 215.584 121.844 294.156S400.882 928 512 928s215.584-43.272 294.156-121.844S928 623.118 928 512s-43.272-215.584-121.844-294.156S623.118 96 512 96zm0-96c282.77 0 512 229.23 512 512s-229.23 512-512 512S0 794.77 0 512 229.23 0 512 0zm-64 704h128v128H448zm0-512h128v384H448z"/>
